Resources/Public/Icons/glossar.svg

<?xml version="1.0" encoding="UTF-8" standalone="no"?>
<svg
   xmlns:dc="http://purl.org/dc/elements/1.1/"
   xmlns:cc="http://creativecommons.org/ns#"
   xmlns:rdf="http://www.w3.org/1999/02/22-rdf-syntax-ns#"
   xmlns:svg="http://www.w3.org/2000/svg"
   xmlns="http://www.w3.org/2000/svg"
   xmlns:sodipodi="http://sodipodi.sourceforge.net/DTD/sodipodi-0.dtd"
   xmlns:inkscape="http://www.inkscape.org/namespaces/inkscape"
   width="100%"
   height="100%"
   viewBox="0 0 83 83"
   version="1.1"
   xml:space="preserve"
   style="fill-rule:evenodd;clip-rule:evenodd;stroke-linecap:round;stroke-linejoin:round;stroke-miterlimit:1.41421;"
   id="svg22"
   sodipodi:docname="glossar.svg"
   inkscape:version="0.92.0 r15299"><metadata
     id="metadata28"><rdf:RDF><cc:Work
         rdf:about=""><dc:format>image/svg+xml</dc:format><dc:type
           rdf:resource="http://purl.org/dc/dcmitype/StillImage" /></cc:Work></rdf:RDF></metadata><defs
     id="defs26" /><sodipodi:namedview
     pagecolor="#ffffff"
     bordercolor="#666666"
     borderopacity="1"
     objecttolerance="10"
     gridtolerance="10"
     guidetolerance="10"
     inkscape:pageopacity="0"
     inkscape:pageshadow="2"
     inkscape:window-width="1920"
     inkscape:window-height="1017"
     id="namedview24"
     showgrid="false"
     inkscape:zoom="2.8433735"
     inkscape:cx="41.5"
     inkscape:cy="41.5"
     inkscape:window-x="1912"
     inkscape:window-y="166"
     inkscape:window-maximized="1"
     inkscape:current-layer="Aufgabenart--Kontur-0-8-" /><g
     transform="matrix(0.266325,0,0,0.266325,-57.8278,-98.0256)"
     id="g20"><g
       id="Aufgabenart--Kontur-0-8-"><g
         transform="matrix(2.03973,0,0,1.1103,-318.219,383.521)"
         id="Rahme"><path
           inkscape:connector-curvature="0"
           id="path2"
           style="fill:#ffffff;fill-rule:nonzero;stroke:#cfcacb;stroke-width:5.96000004px;stroke-opacity:1"
           d="m 287.76,46.679 c -5.636,0 -10.188,4.52 -10.188,10.156 v 138.06 c 0,5.636 4.552,10.188 10.188,10.188 h 100.28 c 5.636,0 10.156,-4.552 10.156,-10.188 v -91.001 l -29.6,-57.218 h -80.844 z" /></g><g
         id="g13"
         transform="matrix(4.6875,0,0,1.60076,175.942,467.736)"><g
           id="g7"
           transform="matrix(0.793015,0,0,2.34564,3.22778,-35.9174)"><path
             inkscape:connector-curvature="0"
             id="path5"
             style="fill:#595959;fill-rule:nonzero"
             d="m 38.47,38.28 h -8.398 l -1.156,3.939 h -7.535 l 8.968,-23.861 h 8.04 l 8.968,23.861 h -7.715 z m -1.546,-5.159 -2.637,-8.578 -2.62,8.578 z" /></g><g
           id="g11"
           transform="matrix(0.793015,0,0,2.34564,3.22778,-35.9174)"><path
             inkscape:connector-curvature="0"
             id="path9"
             style="fill:#595959;fill-rule:nonzero"
             d="m 53.115,18.358 h 20.866 v 4.769 L 60.602,37.092 h 13.867 v 5.127 H 51.829 V 37.271 L 65.062,23.453 H 53.115 Z" /></g></g><g
         transform="matrix(2.03973,0,0,2.03973,-317.842,343.006)"
         id="Ecke"
         style="stroke:#cfcacb;stroke-opacity:1"><path
           inkscape:connector-curvature="0"
           id="path15"
           style="fill:#ffffff;fill-rule:nonzero;stroke:#cfcacb;stroke-width:4.92000008px;stroke-opacity:1"
           d="M 397.83,75.929 368.24,46.304 v 19.438 c 0,5.636 4.52,10.188 10.156,10.188 h 19.438 z" /></g></g></g></svg>

<?xml version="1.0" encoding="UTF-8" standalone="no"?>
<!DOCTYPE svg PUBLIC "-//W3C//DTD SVG 1.1//EN" "http://www.w3.org/Graphics/SVG/1.1/DTD/svg11.dtd">
<svg width="100%" height="100%" viewBox="0 0 83 83" version="1.1" xmlns="http://www.w3.org/2000/svg" xmlns:xlink="http://www.w3.org/1999/xlink" xml:space="preserve" style="fill-rule:evenodd;clip-rule:evenodd;stroke-linecap:round;stroke-linejoin:round;stroke-miterlimit:1.41421;">
    <g transform="matrix(0.266325,0,0,0.266325,-57.8278,-98.0256)">
        <g id="Aufgabenart--Kontur-0-8-">
            <g id="Glossar">
                <g id="Rahme" transform="matrix(2.03973,0,0,1.1103,-318.219,383.521)">
                    <path d="M287.76,46.679C282.124,46.679 277.572,51.199 277.572,56.835L277.572,194.895C277.572,200.531 282.124,205.083 287.76,205.083L388.04,205.083C393.676,205.083 398.196,200.531 398.196,194.895L398.196,103.894L368.596,46.676L287.752,46.676L287.76,46.679Z" style="fill:white;fill-rule:nonzero;stroke:black;stroke-width:5.96px;"/>
                </g>
                <g transform="matrix(4.6875,0,0,1.60076,175.942,467.736)">
                    <g transform="matrix(0.793015,0,0,2.34564,3.22778,-35.9174)">
                        <path d="M38.47,38.28L30.072,38.28L28.916,42.219L21.381,42.219L30.349,18.358L38.389,18.358L47.357,42.219L39.642,42.219L38.47,38.28ZM36.924,33.121L34.287,24.543L31.667,33.121L36.924,33.121Z" style="fill:rgb(89,89,89);fill-rule:nonzero;"/>
                    </g>
                    <g transform="matrix(0.793015,0,0,2.34564,3.22778,-35.9174)">
                        <path d="M53.115,18.358L73.981,18.358L73.981,23.127L60.602,37.092L74.469,37.092L74.469,42.219L51.829,42.219L51.829,37.271L65.062,23.453L53.115,23.453L53.115,18.358Z" style="fill:rgb(89,89,89);fill-rule:nonzero;"/>
                    </g>
                </g>
                <g id="Ecke" transform="matrix(2.03973,0,0,2.03973,-317.842,343.006)">
                    <path d="M397.83,75.929L368.24,46.304L368.24,65.742C368.24,71.378 372.76,75.93 378.396,75.93L397.834,75.93L397.83,75.929Z" style="fill:white;fill-rule:nonzero;stroke:black;stroke-width:4.92px;"/>
                </g>
            </g>
        </g>
    </g>
</svg>
